; generated by Slic3r Prusa Edition 1.41.3+win32 on 2020-03-01 at 17:32:50

; 

; external perimeters extrusion width = 0.45mm
; perimeters extrusion width = 0.45mm
; infill extrusion width = 0.45mm
; solid infill extrusion width = 0.45mm
; top infill extrusion width = 0.40mm
; first layer extrusion width = 0.42mm

M73 P0 R38
M73 Q0 S38
M201 X1000 Y1000 Z1000 E5000 ; sets maximum accelerations, mm/sec^2
M203 X200 Y200 Z12 E120 ; sets maximum feedrates, mm/sec
M204 P1250 R1250 T1250 ; sets acceleration (P, T) and retract acceleration (R), mm/sec^2
M205 X8.00 Y8.00 Z0.40 E1.50 ; sets the jerk limits, mm/sec
M205 S0 T0 ; sets the minimum extruding and travel feed rate, mm/sec
M107
M115 U3.5.1 ; tell printer latest fw version
M83  ; extruder relative mode
M104 S215 ; set extruder temp
M140 S60 ; set bed temp
M190 S60 ; wait for bed temp
M109 S215 ; wait for extruder temp
G28 W ; home all without mesh bed level
G80 ; mesh bed leveling
G1 Y-3.0 F1000.0 ; go outside print area
G92 E0.0
G1 X60.0 E9.0  F1000.0 ; intro line
M73 Q0 S38
M73 P0 R38
G1 X100.0 E12.5  F1000.0 ; intro line
G92 E0.0
M221 S95
M900 K30; Filament gcode
G21 ; set units to millimeters
G90 ; use absolute coordinates
M83 ; use relative distances for extrusion
;BEFORE_LAYER_CHANGE
G92 E0.0
;0.2


G1 E-0.80000 F2100.00000
G1 Z0.600 F10800.000
;AFTER_LAYER_CHANGE
;0.2
G1 X98.475 Y90.430
G1 Z0.200
G1 E0.80000 F2100.00000
M204 S1000
G1 F1200
G1 X98.925 Y90.094 E0.01760
G1 X99.438 Y89.885 E0.01737
G1 X99.987 Y89.812 E0.01737
G1 X150.004 Y89.811 E1.56824
G1 X150.823 Y89.972 E0.02620
G1 X151.521 Y90.426 E0.02608
G1 X151.998 Y91.107 E0.02608
G1 X152.187 Y91.921 E0.02620
G1 X152.187 Y118.088 E0.82044
G1 X152.095 Y118.634 E0.01737
G1 X151.868 Y119.140 E0.01737
G1 X151.522 Y119.572 E0.01737
G1 X151.075 Y119.906 E0.01749
G1 X150.562 Y120.115 E0.01737
G1 X150.013 Y120.188 E0.01737
G1 X99.967 Y120.188 E1.56916
G1 X99.405 Y120.106 E0.01783
G1 X98.882 Y119.882 E0.01783
G1 X98.435 Y119.530 E0.01783
G1 X98.094 Y119.075 E0.01783
G1 X97.887 Y118.569 E0.01714
G1 X97.812 Y118.024 E0.01726
G1 X97.812 Y91.938 E0.81792
G1 X97.900 Y91.383 E0.01760
G1 X98.126 Y90.870 E0.01760
G1 X98.438 Y90.477 E0.01572
; PURGING FINISHED
G1 F8640
G1 X98.925 Y90.094 E-0.14305
G1 X99.438 Y89.885 E-0.12793
G1 X99.987 Y89.812 E-0.12793
G1 X101.551 Y89.811 E-0.36109
G1 E-0.04000 F2100.00000
G1 Z0.800 F10800.000
G1 X100.587 Y92.587
G1 Z0.200
G1 E0.80000 F2100.00000
G1 F1200
G1 X149.413 Y92.587 E1.53090
G1 X149.413 Y117.413 E0.77840
G1 X100.587 Y117.413 E1.53090
G1 X100.587 Y92.647 E0.77652
G1 X100.210 Y92.210 F10800.000
G1 F1200
G1 X149.790 Y92.210 E1.55455
G1 X149.790 Y117.790 E0.80204
G1 X100.210 Y117.790 E1.55455
G1 X100.210 Y92.270 E0.80016
G1 X100.605 Y92.273 F10800.000
G1 F8640
G1 X103.501 Y92.266 E-0.76000
G1 E-0.04000 F2100.00000
G1 Z0.800 F10800.000
G1 X100.700 Y116.535
G1 Z0.200
G1 E0.80000 F2100.00000
G1 F1200
G1 X101.295 Y117.130 E0.02646
G1 X101.830 Y117.130 E0.01682
G1 X100.870 Y116.170 E0.04270
G1 X100.870 Y115.635 E0.01682
G1 X102.365 Y117.130 E0.06648
G1 X102.900 Y117.130 E0.01682
G1 X100.870 Y115.100 E0.09027
G1 X100.870 Y114.566 E0.01682
G1 X103.434 Y117.130 E0.11406
G1 X103.969 Y117.130 E0.01682
G1 X100.870 Y114.031 E0.13784
G1 X100.870 Y113.496 E0.01682
G1 X104.504 Y117.130 E0.16163
G1 X105.039 Y117.130 E0.01682
G1 X100.870 Y112.961 E0.18541
G1 X100.870 Y112.426 E0.01682
G1 X105.574 Y117.130 E0.20920
G1 X106.109 Y117.130 E0.01682
G1 X100.870 Y111.891 E0.23299
G1 X100.870 Y111.356 E0.01682
G1 X106.644 Y117.130 E0.25677
G1 X107.178 Y117.130 E0.01682
G1 X100.870 Y110.822 E0.28056
G1 X100.870 Y110.287 E0.01682
G1 X107.713 Y117.130 E0.30435
G1 X108.248 Y117.130 E0.01682
G1 X100.870 Y109.752 E0.32813
G1 X100.870 Y109.217 E0.01682
G1 X108.783 Y117.130 E0.35192
G1 X109.318 Y117.130 E0.01682
G1 X100.870 Y108.682 E0.37571
G1 X100.870 Y108.147 E0.01682
G1 X109.853 Y117.130 E0.39949
G1 X110.388 Y117.130 E0.01682
G1 X100.870 Y107.612 E0.42328
G1 X100.870 Y107.078 E0.01682
G1 X110.922 Y117.130 E0.44707
G1 X111.457 Y117.130 E0.01682
G1 X100.870 Y106.543 E0.47085
G1 X100.870 Y106.008 E0.01682
G1 X111.992 Y117.130 E0.49464
G1 X112.527 Y117.130 E0.01682
G1 X100.870 Y105.473 E0.51843
G1 X100.870 Y104.938 E0.01682
G1 X113.062 Y117.130 E0.54221
G1 X113.597 Y117.130 E0.01682
G1 X100.870 Y104.403 E0.56600
G1 X100.870 Y103.869 E0.01682
G1 X114.131 Y117.130 E0.58978
G1 X114.666 Y117.130 E0.01682
G1 X100.870 Y103.334 E0.61357
G1 X100.870 Y102.799 E0.01682
G1 X115.201 Y117.130 E0.63736
G1 X115.736 Y117.130 E0.01682
G1 X100.870 Y102.264 E0.66114
G1 X100.870 Y101.729 E0.01682
G1 X116.271 Y117.130 E0.68493
G1 X116.806 Y117.130 E0.01682
G1 X100.870 Y101.194 E0.70872
G1 X100.870 Y100.659 E0.01682
G1 X117.341 Y117.130 E0.73250
G1 X117.875 Y117.130 E0.01682
G1 X100.870 Y100.125 E0.75629
G1 X100.870 Y99.590 E0.01682
G1 X118.410 Y117.130 E0.78008
G1 X118.945 Y117.130 E0.01682
G1 X100.870 Y99.055 E0.80386
G1 X100.870 Y98.520 E0.01682
G1 X119.480 Y117.130 E0.82765
G1 X120.015 Y117.130 E0.01682
G1 X100.870 Y97.985 E0.85144
G1 X100.870 Y97.450 E0.01682
G1 X120.550 Y117.130 E0.87522
G1 X121.085 Y117.130 E0.01682
G1 X100.870 Y96.915 E0.89901
G1 X100.870 Y96.381 E0.01682
G1 X121.619 Y117.130 E0.92280
G1 X122.154 Y117.130 E0.01682
G1 X100.870 Y95.846 E0.94658
M73 Q2 S37
G1 X100.870 Y95.311 E0.01682
G1 X122.689 Y117.130 E0.97037
M73 P2 R37
G1 X123.224 Y117.130 E0.01682
G1 X100.870 Y94.776 E0.99416
G1 X100.870 Y94.241 E0.01682
G1 X123.759 Y117.130 E1.01794
G1 X124.294 Y117.130 E0.01682
G1 X100.870 Y93.706 E1.04173
G1 X100.870 Y93.171 E0.01682
G1 X124.829 Y117.130 E1.06551
G1 X125.363 Y117.130 E0.01682
G1 X101.103 Y92.870 E1.07893
G1 X101.638 Y92.870 E0.01682
G1 X125.898 Y117.130 E1.07893
G1 X126.433 Y117.130 E0.01682
G1 X102.173 Y92.870 E1.07893
G1 X102.708 Y92.870 E0.01682
G1 X126.968 Y117.130 E1.07893
G1 X127.503 Y117.130 E0.01682
G1 X103.243 Y92.870 E1.07893
G1 X103.777 Y92.870 E0.01682
G1 X128.038 Y117.130 E1.07893
G1 X128.572 Y117.130 E0.01682
G1 X104.312 Y92.870 E1.07893
G1 X104.847 Y92.870 E0.01682
G1 X129.107 Y117.130 E1.07893
G1 X129.642 Y117.130 E0.01682
G1 X105.382 Y92.870 E1.07893
G1 X105.917 Y92.870 E0.01682
G1 X130.177 Y117.130 E1.07893
G1 X130.712 Y117.130 E0.01682
G1 X106.452 Y92.870 E1.07893
G1 X106.986 Y92.870 E0.01682
G1 X131.247 Y117.130 E1.07893
G1 X131.782 Y117.130 E0.01682
G1 X107.521 Y92.870 E1.07893
G1 X108.056 Y92.870 E0.01682
G1 X132.316 Y117.130 E1.07893
G1 X132.851 Y117.130 E0.01682
G1 X108.591 Y92.870 E1.07893
G1 X109.126 Y92.870 E0.01682
G1 X133.386 Y117.130 E1.07893
G1 X133.921 Y117.130 E0.01682
G1 X109.661 Y92.870 E1.07893
G1 X110.196 Y92.870 E0.01682
G1 X134.456 Y117.130 E1.07893
G1 X134.991 Y117.130 E0.01682
G1 X110.730 Y92.870 E1.07893
G1 X111.265 Y92.870 E0.01682
G1 X135.526 Y117.130 E1.07893
G1 X136.060 Y117.130 E0.01682
G1 X111.800 Y92.870 E1.07893
G1 X112.335 Y92.870 E0.01682
G1 X136.595 Y117.130 E1.07893
G1 X137.130 Y117.130 E0.01682
G1 X112.870 Y92.870 E1.07893
G1 X113.405 Y92.870 E0.01682
G1 X137.665 Y117.130 E1.07893
G1 X138.200 Y117.130 E0.01682
G1 X113.940 Y92.870 E1.07893
G1 X114.474 Y92.870 E0.01682
G1 X138.735 Y117.130 E1.07893
G1 X139.269 Y117.130 E0.01682
G1 X115.009 Y92.870 E1.07893
G1 X115.544 Y92.870 E0.01682
G1 X139.804 Y117.130 E1.07893
G1 X140.339 Y117.130 E0.01682
G1 X116.079 Y92.870 E1.07893
G1 X116.614 Y92.870 E0.01682
G1 X140.874 Y117.130 E1.07893
M73 Q5 S36
G1 X141.409 Y117.130 E0.01682
G1 X117.149 Y92.870 E1.07893
M73 P5 R36
G1 X117.683 Y92.870 E0.01682
G1 X141.944 Y117.130 E1.07893
G1 X142.479 Y117.130 E0.01682
G1 X118.218 Y92.870 E1.07893
G1 X118.753 Y92.870 E0.01682
G1 X143.013 Y117.130 E1.07893
G1 X143.548 Y117.130 E0.01682
G1 X119.288 Y92.870 E1.07893
G1 X119.823 Y92.870 E0.01682
G1 X144.083 Y117.130 E1.07893
G1 X144.618 Y117.130 E0.01682
G1 X120.358 Y92.870 E1.07893
G1 X120.893 Y92.870 E0.01682
G1 X145.153 Y117.130 E1.07893
G1 X145.688 Y117.130 E0.01682
G1 X121.427 Y92.870 E1.07893
G1 X121.962 Y92.870 E0.01682
G1 X146.223 Y117.130 E1.07893
G1 X146.757 Y117.130 E0.01682
G1 X122.497 Y92.870 E1.07893
G1 X123.032 Y92.870 E0.01682
G1 X147.292 Y117.130 E1.07893
G1 X147.827 Y117.130 E0.01682
G1 X123.567 Y92.870 E1.07893
G1 X124.102 Y92.870 E0.01682
G1 X148.362 Y117.130 E1.07893
G1 X148.897 Y117.130 E0.01682
G1 X124.637 Y92.870 E1.07893
G1 X125.171 Y92.870 E0.01682
G1 X149.130 Y116.829 E1.06552
G1 X149.130 Y116.294 E0.01682
G1 X125.706 Y92.870 E1.04173
G1 X126.241 Y92.870 E0.01682
G1 X149.130 Y115.759 E1.01795
G1 X149.130 Y115.224 E0.01682
G1 X126.776 Y92.870 E0.99416
G1 X127.311 Y92.870 E0.01682
G1 X149.130 Y114.689 E0.97037
G1 X149.130 Y114.154 E0.01682
G1 X127.846 Y92.870 E0.94659
G1 X128.381 Y92.870 E0.01682
G1 X149.130 Y113.619 E0.92280
G1 X149.130 Y113.085 E0.01682
G1 X128.915 Y92.870 E0.89901
G1 X129.450 Y92.870 E0.01682
G1 X149.130 Y112.550 E0.87523
G1 X149.130 Y112.015 E0.01682
G1 X129.985 Y92.870 E0.85144
G1 X130.520 Y92.870 E0.01682
G1 X149.130 Y111.480 E0.82765
G1 X149.130 Y110.945 E0.01682
G1 X131.055 Y92.870 E0.80387
G1 X131.590 Y92.870 E0.01682
G1 X149.130 Y110.410 E0.78008
G1 X149.130 Y109.876 E0.01682
G1 X132.124 Y92.870 E0.75629
G1 X132.659 Y92.870 E0.01682
G1 X149.130 Y109.341 E0.73251
G1 X149.130 Y108.806 E0.01682
G1 X133.194 Y92.870 E0.70872
G1 X133.729 Y92.870 E0.01682
G1 X149.130 Y108.271 E0.68493
G1 X149.130 Y107.736 E0.01682
G1 X134.264 Y92.870 E0.66115
G1 X134.799 Y92.870 E0.01682
G1 X149.130 Y107.201 E0.63736
G1 X149.130 Y106.666 E0.01682
G1 X135.334 Y92.870 E0.61358
G1 X135.868 Y92.870 E0.01682
G1 X149.130 Y106.132 E0.58979
G1 X149.130 Y105.597 E0.01682
G1 X136.403 Y92.870 E0.56600
G1 X136.938 Y92.870 E0.01682
G1 X149.130 Y105.062 E0.54222
G1 X149.130 Y104.527 E0.01682
G1 X137.473 Y92.870 E0.51843
G1 X138.008 Y92.870 E0.01682
G1 X149.130 Y103.992 E0.49464
G1 X149.130 Y103.457 E0.01682
G1 X138.543 Y92.870 E0.47086
G1 X139.078 Y92.870 E0.01682
G1 X149.130 Y102.922 E0.44707
G1 X149.130 Y102.388 E0.01682
G1 X139.612 Y92.870 E0.42328
M73 Q8 S35
G1 X140.147 Y92.870 E0.01682
G1 X149.130 Y101.853 E0.39950
G1 X149.130 Y101.318 E0.01682
G1 X140.682 Y92.870 E0.37571
M73 P8 R35
G1 X141.217 Y92.870 E0.01682
G1 X149.130 Y100.783 E0.35192
G1 X149.130 Y100.248 E0.01682
G1 X141.752 Y92.870 E0.32814
G1 X142.287 Y92.870 E0.01682
G1 X149.130 Y99.713 E0.30435
G1 X149.130 Y99.179 E0.01682
G1 X142.821 Y92.870 E0.28056
G1 X143.356 Y92.870 E0.01682
G1 X149.130 Y98.644 E0.25678
G1 X149.130 Y98.109 E0.01682
G1 X143.891 Y92.870 E0.23299
G1 X144.426 Y92.870 E0.01682
G1 X149.130 Y97.574 E0.20920
G1 X149.130 Y97.039 E0.01682
G1 X144.961 Y92.870 E0.18542
G1 X145.496 Y92.870 E0.01682
G1 X149.130 Y96.504 E0.16163
G1 X149.130 Y95.969 E0.01682
G1 X146.031 Y92.870 E0.13785
G1 X146.565 Y92.870 E0.01682
G1 X149.130 Y95.435 E0.11406
G1 X149.130 Y94.900 E0.01682
G1 X147.100 Y92.870 E0.09027
G1 X147.635 Y92.870 E0.01682
G1 X149.130 Y94.365 E0.06649
G1 X149.130 Y93.830 E0.01682
G1 X148.170 Y92.870 E0.04270
G1 X148.705 Y92.870 E0.01682
G1 X149.300 Y93.465 E0.02646
M106 S255
;BEFORE_LAYER_CHANGE
G92 E0.0
;0.35


G1 F8640
G1 X148.705 Y92.870 E-0.19428
G1 X148.170 Y92.870 E-0.12350
G1 X149.130 Y93.830 E-0.31352
G1 X149.130 Y94.365 E-0.12350
G1 X149.114 Y94.349 E-0.00520
G1 E-0.04000 F2100.00000
G1 Z0.800 F10800.000
;AFTER_LAYER_CHANGE
;0.35
M104 S210 ; set temperature
G1 X151.998 Y91.107
G1 Z0.350
G1 E0.80000 F2100.00000
G1 F3000
G1 X152.187 Y91.921 E0.02021
G1 X152.187 Y118.088 E0.63284
G1 X152.095 Y118.634 E0.01340
G1 X151.868 Y119.140 E0.01340
G1 X151.522 Y119.572 E0.01340
G1 X151.075 Y119.906 E0.01349
G1 X150.562 Y120.115 E0.01340
G1 X150.013 Y120.188 E0.01340
G1 X99.967 Y120.188 E1.21036
G1 X99.405 Y120.106 E0.01375
G1 X98.882 Y119.882 E0.01375
G1 X98.435 Y119.530 E0.01375
G1 X98.094 Y119.075 E0.01375
G1 X97.887 Y118.569 E0.01322
G1 X97.812 Y118.024 E0.01331
G1 X97.812 Y91.938 E0.63089
G1 X97.900 Y91.383 E0.01357
G1 X98.126 Y90.870 E0.01357
G1 X98.475 Y90.430 E0.01357
G1 X98.925 Y90.094 E0.01357
G1 X99.438 Y89.885 E0.01340
G1 X99.987 Y89.812 E0.01340
G1 X150.004 Y89.811 E1.20965
G1 X150.823 Y89.972 E0.02021
G1 X151.521 Y90.426 E0.02012
G1 X151.964 Y91.058 E0.01867
; PURGING FINISHED
G1 F8640
G1 X152.187 Y91.921 E-0.20582
G1 X152.187 Y94.321 E-0.55418
G1 E-0.04000 F2100.00000
G1 Z0.950 F10800.000
G1 X149.357 Y92.643
G1 Z0.350
G1 E0.80000 F2100.00000
M204 S800
G1 F2700
G1 X149.357 Y117.357 E0.64395
G1 X100.643 Y117.357 E1.26929
G1 X100.643 Y92.643 E0.64395
G1 X149.297 Y92.643 E1.26773
M204 S1000
G1 X149.775 Y92.225 F10800.000
M204 S800
G1 F1500
G1 X149.775 Y117.775 E0.66572
G1 X100.225 Y117.775 E1.29106
G1 X100.225 Y92.225 E0.66572
G1 X149.715 Y92.225 E1.28950
M204 S1000
G1 X149.632 Y92.599 F10800.000
G1 F8640
G1 X149.723 Y95.516 E-0.76000
G1 E-0.04000 F2100.00000
G1 Z0.950 F10800.000
G1 X148.383 Y117.232
G1 Z0.350
G1 E0.80000 F2100.00000
M204 S1250
G1 F4800
G1 X149.044 Y116.571 E0.02446
G1 X149.044 Y115.978 E0.01554
G1 X147.978 Y117.044 E0.03947
G1 X147.384 Y117.044 E0.01554
G1 X149.044 Y115.384 E0.06144
G1 X149.044 Y114.790 E0.01554
G1 X146.790 Y117.044 E0.08342
G1 X146.197 Y117.044 E0.01554
G1 X149.044 Y114.197 E0.10539
G1 X149.044 Y113.603 E0.01554
G1 X145.603 Y117.044 E0.12736
G1 X145.010 Y117.044 E0.01554
G1 X149.044 Y113.010 E0.14933
G1 X149.044 Y112.416 E0.01554
G1 X144.416 Y117.044 E0.17131
G1 X143.823 Y117.044 E0.01554
G1 X149.044 Y111.823 E0.19328
G1 X149.044 Y111.229 E0.01554
G1 X143.229 Y117.044 E0.21525
G1 X142.635 Y117.044 E0.01554
G1 X149.044 Y110.635 E0.23723
G1 X149.044 Y110.042 E0.01554
G1 X142.042 Y117.044 E0.25920
G1 X141.448 Y117.044 E0.01554
G1 X149.044 Y109.448 E0.28117
G1 X149.044 Y108.855 E0.01554
G1 X140.855 Y117.044 E0.30315
G1 X140.261 Y117.044 E0.01554
G1 X149.044 Y108.261 E0.32512
G1 X149.044 Y107.667 E0.01554
G1 X139.667 Y117.044 E0.34709
G1 X139.074 Y117.044 E0.01554
G1 X149.044 Y107.074 E0.36907
G1 X149.044 Y106.480 E0.01554
G1 X138.480 Y117.044 E0.39104
G1 X137.887 Y117.044 E0.01554
G1 X149.044 Y105.887 E0.41301
G1 X149.044 Y105.293 E0.01554
G1 X137.293 Y117.044 E0.43498
G1 X136.700 Y117.044 E0.01554
G1 X149.044 Y104.700 E0.45696
G1 X149.044 Y104.106 E0.01554
G1 X136.106 Y117.044 E0.47893
G1 X135.512 Y117.044 E0.01554
G1 X149.044 Y103.512 E0.50090
G1 X149.044 Y102.919 E0.01554
G1 X134.919 Y117.044 E0.52288
G1 X134.325 Y117.044 E0.01554
G1 X149.044 Y102.325 E0.54485
G1 X149.044 Y101.732 E0.01554
G1 X133.732 Y117.044 E0.56682
G1 X133.138 Y117.044 E0.01554
G1 X149.044 Y101.138 E0.58880
G1 X149.044 Y100.544 E0.01554
G1 X132.544 Y117.044 E0.61077
G1 X131.951 Y117.044 E0.01554
G1 X149.044 Y99.951 E0.63274
G1 X149.044 Y99.357 E0.01554
G1 X131.357 Y117.044 E0.65472
G1 X130.764 Y117.044 E0.01554
G1 X149.044 Y98.764 E0.67669
G1 X149.044 Y98.170 E0.01554
G1 X130.170 Y117.044 E0.69866
G1 X129.576 Y117.044 E0.01554
G1 X149.044 Y97.576 E0.72063
G1 X149.044 Y96.983 E0.01554
G1 X128.983 Y117.044 E0.74261
G1 X128.389 Y117.044 E0.01554
G1 X149.044 Y96.389 E0.76458
G1 X149.044 Y95.796 E0.01554
G1 X127.796 Y117.044 E0.78655
G1 X127.202 Y117.044 E0.01554
G1 X149.044 Y95.202 E0.80853
G1 X149.044 Y94.609 E0.01554
G1 X126.609 Y117.044 E0.83050
G1 X126.015 Y117.044 E0.01554
G1 X149.044 Y94.015 E0.85247
G1 X149.044 Y93.421 E0.01554
G1 X125.421 Y117.044 E0.87445
G1 X124.828 Y117.044 E0.01554
G1 X148.916 Y92.956 E0.89167
G1 X148.322 Y92.956 E0.01554
G1 X124.234 Y117.044 E0.89167
G1 X123.641 Y117.044 E0.01554
G1 X147.728 Y92.956 E0.89167
G1 X147.135 Y92.956 E0.01554
G1 X123.047 Y117.044 E0.89167
G1 X122.453 Y117.044 E0.01554
G1 X146.541 Y92.956 E0.89167
G1 X145.948 Y92.956 E0.01554
G1 X121.860 Y117.044 E0.89167
G1 X121.266 Y117.044 E0.01554
G1 X145.354 Y92.956 E0.89167
G1 X144.760 Y92.956 E0.01554
G1 X120.673 Y117.044 E0.89167
G1 X120.079 Y117.044 E0.01554
G1 X144.167 Y92.956 E0.89167
G1 X143.573 Y92.956 E0.01554
G1 X119.486 Y117.044 E0.89167
G1 X118.892 Y117.044 E0.01554
G1 X142.980 Y92.956 E0.89167
G1 X142.386 Y92.956 E0.01554
G1 X118.298 Y117.044 E0.89167
G1 X117.705 Y117.044 E0.01554
G1 X141.792 Y92.956 E0.89167
G1 X141.199 Y92.956 E0.01554
G1 X117.111 Y117.044 E0.89167
G1 X116.518 Y117.044 E0.01554
G1 X140.605 Y92.956 E0.89167
